X: 0
T: $150 Boot, The
R: polka
M: 2/4
K: Gmajor
|:d>g fe|dB AG|E/F/G E/F/G|BA GF|
d>g fe|dB AG|E/F/G E/F/G|BA G2:|
|:e>f ga|ba gf|e/f/g e/f/g|d/c/B/A/ BA|
e>f ga|ba gf|e/f/g e/f/g|ag g2:|

